!!!COM: Bach, Johann Sebastian
!!!CDT: 1685/3//-1750/7/28/
!!!OTL@@DE: Wer nur den lieben Gott laesst walten
!!!AGN: 4-Part Chorale
!!!SCT: BH 146
!!!SCT: BWV 434
**harm	**root	**kern	**kern	**kern	**kern
!	!	!bass	!tenor	!alto	!soprno
*	*Iorgan	*Iorgan	*Iorgan	*Iorgan	*Iorgan
*	*	*clefF2	*clefF2	*clefG2	*clefG2
*k[f#]	*k[f#]	*k[f#]	*k[f#]	*k[f#]	*k[f#]
*e:	*e:	*e:	*e:	*e:	*e:
*M4/4	*M4/4	*M4/4	*M4/4	*M4/4	*M4/4
*met(c)	*met(c)	*met(c)	*met(c)	*met(c)	*met(c)
*MM60	*MM60	*MM60	*MM60	*MM60	*MM60
*>[A,A,B]	*>[A,A,B]	*>[A,A,B]	*>[A,A,B]	*>[A,A,B]	*>[A,A,B]
*>A	*>A	*>A	*>A	*>A	*>A
i	4AA	4E	8E	8G	4B
.	.	.	8F#	8A	.
=1	=1	=1	=1	=1	=1
ib	4AA	4GG	8G	4B	4e
.	.	.	8F#	.	.
V	4EE	4BB	8E	4B	4f#
.	.	.	8D#	.	.
i	4AA	4EE	4E	8B	4g
.	.	.	.	8c#	.
viiob	4GG#	4FF#	4AA	4d#	4f#
=2	=2	=2	=2	=2	=2
ib	4AA	4GG	8BB	8e	4e
.	.	.	8B	8d	.
iiob	4BB	4AA	8A	4c	4f#
.	.	.	8G	.	.
V	2EE	2BB	4.F#	2B	4.d#
.	.	.	8E	.	8c#
=3	=3	=3	=3	=3	=3
V;	4EE;	4BB;	4D#;	4F#;	4B;
v	4EE	4BB	4F#	4B	4d
i7	4AA	4E	4G	4B	4d
iio	4BB	8F#	8A	4A	4c
.	.	8E	8G	.	.
=4	=4	=4	=4	=4	=4
V7b	8EE	8D#	8F#	8A	4B
V7c/IV	8AA	8D	8E	8G#	.
IVb	8DD	8C#	8E	8A	4e
Fr	8DD#	8C	8F#	8A#	.
ic	8AA	8BB	8G	8B	8e
Vb/V	8BB	8AA#	[8F#	8c#	8f#
V7	4EE	4BB	8F#]	4B	4d#
.	.	.	16G	.	.
.	.	.	16A	.	.
!!linebreak: 2
=5	=5	=5	=5	=5	=5
i;	2.AA;	2.EE;	2.G;	2.B;	2.e;
=:|!	=:|!	=:|!	=:|!	=:|!	=:|!
*>B	*>B	*>B	*>B	*>B	*>B
V	4EE	4BB	4B	4d#	4f#
=6	=6	=6	=6	=6	=6
i	4AA	4E	4B	4e	4g
-VII	4GG	4F#	4A	4d	4a
III	4CC	8G	4G	4d	4b
.	.	8F#	.	.	.
i	4AA	8E	4G	4e	4b
.	.	8D	.	.	.
=7	=7	=7	=7	=7	=7
iv7	4DD	8C	4G	4e	8a
.	.	8AA	.	.	16b
.	.	.	.	.	16cc
V7/III	4GG	4D	4F#	8d	4a
.	.	.	.	8c	.
III;	4CC;	4GG;	4D;	4B;	4g;
I	4AA	4GG#	4E	4B	4b
=8	=8	=8	=8	=8	=8
IV	8DD	8AA	8E	8c#	4a
V7	8EE	8BB	8B	8d#	.
vi7	8FF	8C	8B	4e	4g
viio/-VII	8FF#	8C#	8B-	.	.
-VII	8GG	8D	4A	8d	4f#
viio7	8GG#	8D#	.	8c	.
i	4AA	4E	8G	4B	8e
.	.	.	8F#	.	8f#
=9	=9	=9	=9	=9	=9
viio7/V	4DD#	4AA#	4E	4c#	8g
.	.	.	.	.	8f#
V7	4EE	4BB	4D#	8B	4f#
.	.	.	.	8A	.
I;	4AA;	4EE;	4BB;	4G#;	4e;
==	==	==	==	==	==
*-	*-	*-	*-	*-	*-
!!chor2scor: -l 2 -s 0.6 -o %b.pmx
!!!YEC: Copyright 2003 by Craig Stuart Sapp
!!!license: GNU General Public License (http://www.gnu.org/copyleft/gpl.html)
!!!SMA: 371 Bach Chorales, edited by Ludwig Erk, C.F. Peters
!!!PDT: 1850, 1865
!!!ONB: Harmony and Root analysis done manually by Craig Sapp
